Numix-Light/24x24/status/simplescreenrecorder.svg

<?xml version="1.0" encoding="UTF-8" standalone="no"?>
<svg
   xmlns:dc="http://purl.org/dc/elements/1.1/"
   xmlns:cc="http://creativecommons.org/ns#"
   xmlns:rdf="http://www.w3.org/1999/02/22-rdf-syntax-ns#"
   xmlns:svg="http://www.w3.org/2000/svg"
   xmlns="http://www.w3.org/2000/svg"
   xmlns:sodipodi="http://sodipodi.sourceforge.net/DTD/sodipodi-0.dtd"
   xmlns:inkscape="http://www.inkscape.org/namespaces/inkscape"
   width="24"
   height="24"
   viewBox="0 0 24 24"
   id="svg3109"
   version="1.1"
   inkscape:version="0.48.5 r10040"
   sodipodi:docname="simplescreenrecorder.svg">
  <metadata
     id="metadata3139">
    <rdf:RDF>
      <cc:Work
         rdf:about="">
        <dc:format>image/svg+xml</dc:format>
        <dc:type
           rdf:resource="http://purl.org/dc/dcmitype/StillImage" />
      </cc:Work>
    </rdf:RDF>
  </metadata>
  <sodipodi:namedview
     pagecolor="#ffffff"
     bordercolor="#666666"
     borderopacity="1"
     objecttolerance="10"
     gridtolerance="10"
     guidetolerance="10"
     inkscape:pageopacity="0"
     inkscape:pageshadow="2"
     inkscape:window-width="1280"
     inkscape:window-height="998"
     id="namedview3137"
     showgrid="false"
     inkscape:zoom="27.812867"
     inkscape:cx="11.018899"
     inkscape:cy="5.5532137"
     inkscape:window-x="0"
     inkscape:window-y="0"
     inkscape:window-maximized="1"
     inkscape:current-layer="svg3109" />
  <defs
     id="defs3111">
    <filter
       id="0"
       filterUnits="objectBoundingBox"
       x="0"
       y="0"
       width="24"
       height="24">
      <feColorMatrix
         type="matrix"
         in="SourceGraphic"
         values="0 0 0 0 1 0 0 0 0 1 0 0 0 0 1 0 0 0 1 0"
         id="feColorMatrix3114" />
    </filter>
    <mask
       id="1">
      <g
         filter="url(#0)"
         id="g3117">
        <rect
           width="24"
           height="24"
           fill-opacity="0.302"
           id="rect3119" />
      </g>
    </mask>
    <clipPath
       id="2">
      <rect
         width="24"
         height="24"
         id="rect3122" />
    </clipPath>
    <g
       id="3"
       clip-path="url(#2)">
      <path
         d="M 20 7.050781 C 20.804688 7.050781 21.488281 7.3125 22.058594 7.835938 C 22.625 8.359375 22.910156 8.992188 22.910156 9.734375 L 22.910156 19.132812 C 22.910156 19.875 22.625 20.507812 22.058594 21.03125 C 21.488281 21.554688 20.804688 21.816406 20 21.816406 L 4 21.816406 C 3.195312 21.816406 2.511719 21.554688 1.941406 21.03125 C 1.375 20.507812 1.089844 19.875 1.089844 19.132812 L 1.089844 9.734375 C 1.089844 8.992188 1.375 8.359375 1.941406 7.835938 C 2.511719 7.3125 3.195312 7.050781 4 7.050781 L 6.546875 7.050781 L 7.125 5.621094 C 7.269531 5.28125 7.53125 4.984375 7.914062 4.734375 C 8.296875 4.488281 8.6875 4.363281 9.089844 4.363281 L 14.910156 4.363281 C 15.3125 4.363281 15.703125 4.488281 16.085938 4.734375 C 16.46875 4.984375 16.730469 5.28125 16.875 5.621094 L 17.453125 7.050781 Z M 12 19.132812 C 13.402344 19.132812 14.601562 18.671875 15.597656 17.753906 C 16.59375 16.832031 17.089844 15.726562 17.089844 14.433594 C 17.089844 13.140625 16.59375 12.03125 15.597656 11.113281 C 14.601562 10.195312 13.402344 9.734375 12 9.734375 C 10.597656 9.734375 9.398438 10.195312 8.402344 11.113281 C 7.40625 12.03125 6.910156 13.140625 6.910156 14.433594 C 6.910156 15.726562 7.40625 16.832031 8.402344 17.753906 C 9.398438 18.671875 10.597656 19.132812 12 19.132812 Z "
         id="path3125" />
      <path
         d="M 15.355469 14.4375 C 15.359375 16.191406 13.855469 17.613281 12 17.613281 C 10.144531 17.613281 8.644531 16.191406 8.644531 14.4375 C 8.644531 12.6875 10.144531 11.265625 12 11.265625 C 13.855469 11.265625 15.359375 12.6875 15.355469 14.4375 Z "
         id="path3127" />
    </g>
  </defs>
  <path
     style="fill:#353535;fill-opacity:1"
     inkscape:connector-curvature="0"
     id="path3133"
     d="m 20,5.957031 c 0.804688,0 1.488281,0.261719 2.058594,0.789063 0.566406,0.523437 0.851562,1.15625 0.851562,1.898437 l 0,9.398438 c 0,0.738281 -0.285156,1.371093 -0.851562,1.898437 C 21.488281,20.464844 20.804688,20.726562 20,20.726562 l -16,0 c -0.804688,0 -1.488281,-0.261718 -2.058594,-0.785156 C 1.375,19.414062 1.089844,18.78125 1.089844,18.042969 l 0,-9.398438 c 0,-0.742187 0.285156,-1.375 0.851562,-1.898437 C 2.511719,6.21875 3.195312,5.957031 4,5.957031 l 2.546875,0 L 7.125,4.53125 C 7.269531,4.1875 7.53125,3.894531 7.914062,3.644531 8.296875,3.398438 8.6875,3.273438 9.089844,3.273438 l 5.820312,0 c 0.402344,0 0.792969,0.125 1.175782,0.371093 0.382812,0.25 0.644531,0.542969 0.789062,0.886719 l 0.578125,1.425781 z m -8,12.085938 c 1.402344,0 2.601562,-0.460938 3.597656,-1.378907 0.996094,-0.921874 1.492188,-2.027343 1.492188,-3.320312 0,-1.292969 -0.496094,-2.402344 -1.492188,-3.320312 C 14.601562,9.101562 13.402344,8.644531 12,8.644531 c -1.402344,0 -2.601562,0.457031 -3.597656,1.378907 -0.996094,0.917968 -1.492188,2.027343 -1.492188,3.320312 0,1.292969 0.496094,2.398438 1.492188,3.320312 0.996094,0.917969 2.195312,1.378907 3.597656,1.378907 z" />
  <path
     style="fill:#353535;fill-opacity:1"
     inkscape:connector-curvature="0"
     id="path3135"
     d="m 15.355469,13.347656 c 0.0039,1.753906 -1.5,3.175782 -3.355469,3.175782 -1.855469,0 -3.355469,-1.421876 -3.355469,-3.175782 0,-1.753906 1.5,-3.175781 3.355469,-3.175781 1.855469,0 3.359375,1.421875 3.355469,3.175781 z" />
</svg>

<svg xmlns="http://www.w3.org/2000/svg" xmlns:xlink="http://www.w3.org/1999/xlink" width="24" height="24" viewBox="0 0 24 24">
 <defs>
  <filter id="0" filterUnits="objectBoundingBox" x="0" y="0" width="24" height="24">
   <feColorMatrix type="matrix" in="SourceGraphic" values="0 0 0 0 1 0 0 0 0 1 0 0 0 0 1 0 0 0 1 0"/>
  </filter>
  <mask id="1">
   <g filter="url(#0)">
    <rect width="24" height="24" fill-opacity="0.302"/>
   </g>
  </mask>
  <clipPath id="2">
   <rect width="24" height="24"/>
  </clipPath>
  <g id="3" clip-path="url(#2)">
   <path d="M 20 7.050781 C 20.804688 7.050781 21.488281 7.3125 22.058594 7.835938 C 22.625 8.359375 22.910156 8.992188 22.910156 9.734375 L 22.910156 19.132812 C 22.910156 19.875 22.625 20.507812 22.058594 21.03125 C 21.488281 21.554688 20.804688 21.816406 20 21.816406 L 4 21.816406 C 3.195312 21.816406 2.511719 21.554688 1.941406 21.03125 C 1.375 20.507812 1.089844 19.875 1.089844 19.132812 L 1.089844 9.734375 C 1.089844 8.992188 1.375 8.359375 1.941406 7.835938 C 2.511719 7.3125 3.195312 7.050781 4 7.050781 L 6.546875 7.050781 L 7.125 5.621094 C 7.269531 5.28125 7.53125 4.984375 7.914062 4.734375 C 8.296875 4.488281 8.6875 4.363281 9.089844 4.363281 L 14.910156 4.363281 C 15.3125 4.363281 15.703125 4.488281 16.085938 4.734375 C 16.46875 4.984375 16.730469 5.28125 16.875 5.621094 L 17.453125 7.050781 Z M 12 19.132812 C 13.402344 19.132812 14.601562 18.671875 15.597656 17.753906 C 16.59375 16.832031 17.089844 15.726562 17.089844 14.433594 C 17.089844 13.140625 16.59375 12.03125 15.597656 11.113281 C 14.601562 10.195312 13.402344 9.734375 12 9.734375 C 10.597656 9.734375 9.398438 10.195312 8.402344 11.113281 C 7.40625 12.03125 6.910156 13.140625 6.910156 14.433594 C 6.910156 15.726562 7.40625 16.832031 8.402344 17.753906 C 9.398438 18.671875 10.597656 19.132812 12 19.132812 Z "/>
   <path d="M 15.355469 14.4375 C 15.359375 16.191406 13.855469 17.613281 12 17.613281 C 10.144531 17.613281 8.644531 16.191406 8.644531 14.4375 C 8.644531 12.6875 10.144531 11.265625 12 11.265625 C 13.855469 11.265625 15.359375 12.6875 15.355469 14.4375 Z "/>
  </g>
 </defs>
 <g>
  <use xlink:href="#3" mask="url(#1)"/>
  <path d="M 20 5.957031 C 20.804688 5.957031 21.488281 6.21875 22.058594 6.746094 C 22.625 7.269531 22.910156 7.902344 22.910156 8.644531 L 22.910156 18.042969 C 22.910156 18.78125 22.625 19.414062 22.058594 19.941406 C 21.488281 20.464844 20.804688 20.726562 20 20.726562 L 4 20.726562 C 3.195312 20.726562 2.511719 20.464844 1.941406 19.941406 C 1.375 19.414062 1.089844 18.78125 1.089844 18.042969 L 1.089844 8.644531 C 1.089844 7.902344 1.375 7.269531 1.941406 6.746094 C 2.511719 6.21875 3.195312 5.957031 4 5.957031 L 6.546875 5.957031 L 7.125 4.53125 C 7.269531 4.1875 7.53125 3.894531 7.914062 3.644531 C 8.296875 3.398438 8.6875 3.273438 9.089844 3.273438 L 14.910156 3.273438 C 15.3125 3.273438 15.703125 3.398438 16.085938 3.644531 C 16.46875 3.894531 16.730469 4.1875 16.875 4.53125 L 17.453125 5.957031 Z M 12 18.042969 C 13.402344 18.042969 14.601562 17.582031 15.597656 16.664062 C 16.59375 15.742188 17.089844 14.636719 17.089844 13.34375 C 17.089844 12.050781 16.59375 10.941406 15.597656 10.023438 C 14.601562 9.101562 13.402344 8.644531 12 8.644531 C 10.597656 8.644531 9.398438 9.101562 8.402344 10.023438 C 7.40625 10.941406 6.910156 12.050781 6.910156 13.34375 C 6.910156 14.636719 7.40625 15.742188 8.402344 16.664062 C 9.398438 17.582031 10.597656 18.042969 12 18.042969 Z " fill="#353535"/>
  <path d="M 15.355469 13.347656 C 15.359375 15.101562 13.855469 16.523438 12 16.523438 C 10.144531 16.523438 8.644531 15.101562 8.644531 13.347656 C 8.644531 11.59375 10.144531 10.171875 12 10.171875 C 13.855469 10.171875 15.359375 11.59375 15.355469 13.347656 Z " fill="#353535"/>
 </g>
</svg>
